!!!OTL: JETZT REISEN WIR ZUM THOR HINAUS
!!!ARE: Europa, Mitteleuropa, Deutschland, Hessen, Wetterau, Butzbach
!!!SCT: E0757A
!!!YEM: Copyright 1995, estate of Helmut Schaffrath.
**kern
*ICvox
*Ivox
*M2/4
*k[f#]
*G:
{8d
=1
8d
8g
8g
8g
=2
8g
8b
8a
8g
=3
4.a}
{16d
16f#
=4
8a
8a
8a
8a
=5
8a
8cc
8b
8a
=6
4.b}
{8g
=7
8b
8b
8b
8b
=8
8b
8dd
8cc}
{8b
=9
8a
8a
8a
8a
=10
8a
8ee
8dd}
{8cc
=11
8b
8b
8a
8a
=12
4a
8r}
==
!!!AGN: Abschieds - Lied, Liebe
!!!ONB: ESAC (Essen Associative Code) Database: ERK2
!!!AMT: simple duple
!!!AIN: vox
!!!EED: Helmut Schaffrath
!!!EEV: 1.0
*-
